X:1
T:To thee, O God, we render praise
T:Joseph Stephenson
T:Text: Tate/Brady on Ps. 75
T:This edition by Edmund Gooch released into the public domain, March 2014.
T:To thee, O God, we render praise
T:Ps: 75th
C:Joseph Stephenson
Z:Text: Tate/Brady on Ps. 75
%%score [ 1 2 3 4 ]
L:1/8
M:4/4
K:Gmin
V:1 treble nm="Treble" snm="Tr."
V:2 treble nm="Alto" snm="A."
V:3 treble-8 transpose=-12 nm="Tenor" snm="T."
V:4 bass nm="Bass" snm="B."
V:1
 z4 B4 | (G2 A2) G4 | (AG ^F2) G4 | (A2 B2) (c2 B2) | A4 d4 | (B3 c) (d2 c2) | B4 (A3 G) | ^F4 B4 | %8
w: His|hand _ holds|forth _ _ a|dread- * ful _|cup, With|pur- * ple _|wine ’tis _|crown’d; The|
w: To|thee, _ O|God, _ _ we|ren- * der _|praise, To|thee _ with _|thanks re- *|pair; For|
w: For|God _ the|great _ _ dis-|po- * ser _|is, And|sov- * ’reign _|judge a- *|lone, Who|
 A2 G2 ^F2 G2 | A2 B2 d4 | d4 B2 (cB) | A2 (G2 ^F4) | G8 |] %13
w: dead- ly mix- ture,|which his wrath|Deals out to _|na- tions _|round.|
w: that thy name to|us is nigh,|Thy wond- rous _|works de- *|clare.|
w: casts the proud to|earth, and lifts|The hum- ble _|to a _|throne.|
V:2
 z4 D4 | D4 E4 | (FE D2) G4 | (F2 G2) (E3 D) | D4 F4 | F4 A4 | G4 E4 | D4 D4 | F2 D2 D2 B,2 | %9
w: His|hand holds|forth _ _ a|dread- * ful _|cup, With|pur- ple|wine ’tis|crown’d; The|dead- ly mix- ture,|
w: To|thee, O|God, _ _ we|ren- * der _|praise, To|thee with|thanks re-|pair; For|that thy name to|
w: For|God the|great _ _ dis-|po- * ser _|is, And|sov- ’reign|judge a-|lone, Who|casts the proud to|
 E2 D2 D4 | ^F4 G2 G2 | E2 D6 | D8 |] %13
w: which his wrath|Deals out to|na- tions|round.|
w: us is nigh,|Thy wond- rous|works de-|clare.|
w: earth, and lifts|The hum- ble|to a|throne.|
V:3
 z4 G4 | (B2 A2) (B2 c>d) | d4 (e2 d2) | (c2 B2) (A2 G2) | ^F4 B4 | (d3 e) (f2 e2) | d4 ^c4 | %7
w: His|hand _ holds _ _|forth a _|dread- * ful _|cup, With|pur- * ple _|wine ’tis|
w: To|thee, _ O _ _|God, we _|ren- * der _|praise, To|thee _ with _|thanks re-|
w: For|God _ the _ _|great dis- *|po- * ser _|is, And|sov- * ’reign _|judge a-|
 d4 d4 | c2 B2 A2 G2 | c2 B2 A4 | A4 B2 G2 | c2 (B2 A3 B) | G8 |] %13
w: crown’d; The|dead- ly mix- ture,|which his wrath|Deals out to|na- tions _ _|round.|
w: pair; For|that thy name to|us is nigh,|Thy wond- rous|works de- * *|clare.|
w: lone, Who|casts the proud to|earth, and lifts|The hum- ble|to a _ _|throne.|
V:4
 z4 G,4 | (G,2 F,2) E,4 | D,4 (C,2 B,,2) | (A,,2 G,,2) (A,,2 B,,>C,) | D,4 B,,4 | B,4 F,4 | %6
w: His|hand _ holds|forth a _|dread- * ful _ _|cup, With|pur- ple|
w: To|thee, _ O|God, we _|ren- * der _ _|praise, To|thee with|
w: For|God _ the|great dis- *|po- * ser _ _|is, And|sov- ’reign|
 G,4 A,4 | %7
w: wine ’tis|
w: thanks re-|
w: judge a-|
"^His prophet, I to all the worldThis message will relate;The justice then of Jacob’s GodMy song shall celebrate." D,4 B,4 | %8
w: crown’d; The|
w: pair; For|
w: lone, Who|
 F,2 G,2 D,2"^The wicked’s pride I will reduce,Their cruelty disarm;Exalt the just, and seat him high,Above the reach of harm." E,2 | %9
w: dead- ly mix- ture,|
w: that thy name to|
w: casts the proud to|
 C,2 G,,2 D,4 | %10
w: which his wrath|
w: us is nigh,|
w: earth, and lifts|
 D,4 G,2"^Notes: Only the opening words of thetext are given in the source, as ‘To theeO God we render Praise &c.’: selectedverses have been added editorially.The alto part is given in the alto clefin the source." E,2 | %11
w: Deals out to|
w: Thy wond- rous|
w: The hum- ble|
 C,2 D,6 | G,,8 |] %13
w: na- tions|round.|
w: works de-|clare.|
w: to a|throne.|

